images/icon-search.svg

<svg height="26" viewBox="0 0 26 26" width="26" xmlns="http://www.w3.org/2000/svg"><path d="m17.77 14.9c1.4198152-2.4425854 1.4309543-5.45654802.0292324-7.90956136-1.4017219-2.45301333-4.0040219-3.97358221-6.8292324-3.99043864h-.05c-4.37685664 0-7.925 3.54814336-7.925 7.925 0 4.3768566 3.54814336 7.925 7.925 7.925h.05c1.4058638.0037348 2.7870636-.3691891 4-1.08l4.93 4.94c.1745995.175876.4121747.2747901.66.2747901s.4854005-.0989141.66-.2747901l1.55-1.55c.175876-.1745995.2747901-.4121747.2747901-.66s-.0989141-.4854005-.2747901-.66zm-6.89 1.93c-3.26124145 0-5.905-2.6437586-5.905-5.905 0-3.26124145 2.64375855-5.905 5.905-5.905 3.2612414 0 5.905 2.64375855 5.905 5.905 0 3.2612414-2.6437586 5.905-5.905 5.905z" fill="#999" fill-rule="evenodd"/></svg>

<?xml version="1.0" encoding="UTF-8" standalone="no"?>
<svg width="26px" height="26px" viewBox="0 0 26 26" version="1.1" xmlns="http://www.w3.org/2000/svg" xmlns:xlink="http://www.w3.org/1999/xlink">
    <!-- Generator: Sketch 3.6.1 (26313) - http://www.bohemiancoding.com/sketch -->
    <title>icon-search</title>
    <desc>Created with Sketch.</desc>
    <defs></defs>
    <g id="Page-1" stroke="none" stroke-width="1" fill="none" fill-rule="evenodd">
        <g id="icon-search" fill="#999999">
            <path d="M17.77,14.9 C19.1898152,12.4574146 19.2009543,9.44345198 17.7992324,6.99043864 C16.3975105,4.53742531 13.7952105,3.01685643 10.97,3 L10.92,3 C6.54314336,3 2.995,6.54814336 2.995,10.925 C2.995,15.3018566 6.54314336,18.85 10.92,18.85 L10.97,18.85 C12.3758638,18.8537348 13.7570636,18.4808109 14.97,17.77 L19.9,22.71 C20.0745995,22.885876 20.3121747,22.9847901 20.56,22.9847901 C20.8078253,22.9847901 21.0454005,22.885876 21.22,22.71 L22.77,21.16 C22.945876,20.9854005 23.0447901,20.7478253 23.0447901,20.5 C23.0447901,20.2521747 22.945876,20.0145995 22.77,19.84 L17.77,14.9 Z M10.88,16.83 C7.61875855,16.83 4.975,14.1862414 4.975,10.925 C4.975,7.66375855 7.61875855,5.02 10.88,5.02 L10.88,5.02 C14.1412414,5.02 16.785,7.66375855 16.785,10.925 C16.785,14.1862414 14.1412414,16.83 10.88,16.83 L10.88,16.83 L10.88,16.83 Z" id="magn-glass"></path>
        </g>
    </g>
</svg>
